webapp/src/assets/icons/cloudproviders/aws/architecture_services/vpc.svg

<?xml version="1.0" encoding="UTF-8"?>
<svg width="40px" height="40px" viewBox="0 0 40 40" version="1.1" xmlns="http://www.w3.org/2000/svg" xmlns:xlink="http://www.w3.org/1999/xlink">
    <title>Icon-Architecture/32/Arch_Amazon-Virtual-Private-Cloud_32</title>
    <g id="Icon-Architecture/32/Arch_Amazon-Virtual-Private-Cloud_32" stroke="none" stroke-width="1" fill="none" fill-rule="evenodd">
        <path d="M30.971,21.0296327 L28.027,19.7666327 L28.027,30.2556327 C30.573,29.9036327 30.959,27.2876327 30.975,27.1686327 L30.971,21.0296327 Z M27.027,30.2696327 L27.027,19.7596327 L23.992,21.0326327 L23.992,27.2336327 C24.004,27.2876327 24.437,30.0006327 27.027,30.2696327 L27.027,30.2696327 Z M27.333,18.5476327 C27.458,18.4946327 27.599,18.4956327 27.724,18.5486327 L31.668,20.2406327 C31.852,20.3196327 31.971,20.4996327 31.971,20.6996327 L31.971,27.2336327 C31.788,28.6806327 30.614,31.2966327 27.444,31.2966327 C24.369,31.2966327 23.19,28.6846327 22.996,27.3026327 L22.992,20.6996327 C22.992,20.4986327 23.113,20.3166327 23.298,20.2386327 L27.333,18.5476327 Z M32.9830022,19.1846327 L27.522,16.7786327 L21.992,19.1056327 L21.992,26.2336327 C21.991,26.2756327 21.938,29.1016327 23.649,30.8566327 C24.566,31.7976327 25.843,32.2756327 27.444,32.2756327 C29.046,32.2756327 30.331,31.7966327 31.263,30.8536327 C32.998,29.0956327 32.9830022,26.2686327 32.9830022,26.2406327 L32.9830022,19.1846327 Z M31.98,31.5506327 C30.853,32.6946327 29.326,33.2756327 27.444,33.2756327 C25.56,33.2756327 24.04,32.6946327 22.927,31.5486327 C20.922,29.4856327 20.988,26.3516327 20.992,26.2196327 L20.992,18.7736327 C20.992,18.5726327 21.112,18.3906327 21.297,18.3126327 L27.332,15.7726327 C27.459,15.7196327 27.603,15.7206327 27.728,15.7766327 L33.684,18.4016327 C33.866,18.4816327 33.983,18.6606327 33.983,18.8586327 L33.983,26.2336327 C33.985,26.3586327 34.01,29.4886327 31.98,31.5506327 L31.98,31.5506327 Z M10.992,24.2366327 L18.992,24.2366327 L18.992,25.2366327 L10.992,25.2366327 C8.181,25.2366327 6.181,23.2206327 6.013,20.2206327 C6.001,20.1096327 6,19.9756327 6,19.8416327 C6,17.3326327 7.318,15.6186327 9.817,14.8626327 C9.798,14.6356327 9.785,14.3966327 9.785,14.2156327 C9.785,11.2996327 11.362,8.77063273 13.802,7.77063273 C17.1,6.42263273 20.844,6.87563273 22.908,8.87463273 C23.653,9.59863273 24.232,10.4166327 24.668,11.3596327 C25.277,10.9086327 26.068,10.6966327 27.017,10.7456327 C28.797,10.8356327 30.166,12.4586327 30.45,14.7526327 C31.948,14.8766327 32.935,15.6356327 33.46,17.0606327 L32.523,17.4066327 C32.095,16.2496327 31.315,15.7336327 29.992,15.7336327 C29.727,15.7336327 29.508,15.5276327 29.492,15.2636327 C29.354,12.9256327 28.086,11.8006327 26.966,11.7446327 C26.018,11.6946327 25.321,11.9636327 24.887,12.5356327 C24.777,12.6806327 24.601,12.7516327 24.414,12.7286327 C24.234,12.7006327 24.082,12.5776327 24.019,12.4056327 C23.615,11.3026327 23.024,10.3826327 22.212,9.59163273 C20.424,7.86163273 17.122,7.49263273 14.181,8.69663273 C12.118,9.54163273 10.785,11.7076327 10.785,14.2156327 C10.785,14.4886327 10.82,14.9116327 10.851,15.1746327 C10.881,15.4256327 10.72,15.6586327 10.475,15.7186327 C8.169,16.2906327 7,17.6776327 7,19.8416327 C7,19.9426327 6.999,20.0426327 7.009,20.1436327 C7.15,22.6386327 8.712,24.2366327 10.992,24.2366327 L10.992,24.2366327 Z" id="Amazon-Virtual-Private-Cloud_Icon_32_Squid" fill="#8C4FFF"></path>
    </g>
</svg>

<svg width="40" height="40" xmlns="http://www.w3.org/2000/svg"><path d="m30.971 21.03-2.944-1.263v10.489c2.546-.352 2.932-2.968 2.948-3.087l-.004-6.14Zm-3.944 9.24V19.76l-3.035 1.273v6.2c.012.055.445 2.768 3.035 3.037Zm.306-11.722a.5.5 0 0 1 .391 0l3.944 1.693a.5.5 0 0 1 .303.459v6.534c-.183 1.447-1.357 4.063-4.527 4.063-3.075 0-4.254-2.612-4.448-3.994l-.004-6.603c0-.201.121-.383.306-.461l4.035-1.691Zm5.65.637-5.461-2.406-5.53 2.327v7.128c-.001.042-.054 2.868 1.657 4.623.917.94 2.194 1.419 3.795 1.419 1.602 0 2.887-.48 3.819-1.422 1.735-1.758 1.72-4.585 1.72-4.613v-7.056ZM31.98 31.55c-1.127 1.144-2.654 1.725-4.536 1.725-1.884 0-3.404-.581-4.517-1.727-2.005-2.063-1.939-5.197-1.935-5.33v-7.445a.5.5 0 0 1 .305-.461l6.035-2.54a.5.5 0 0 1 .396.004l5.956 2.625c.182.08.299.259.299.457v7.375c.002.125.027 3.255-2.003 5.317Zm-20.988-7.314h8v1h-8c-2.811 0-4.811-2.016-4.979-5.016A3.745 3.745 0 0 1 6 19.84c0-2.508 1.318-4.222 3.817-4.978a8.352 8.352 0 0 1-.032-.647c0-2.916 1.577-5.445 4.017-6.445 3.298-1.348 7.042-.895 9.106 1.104a8.232 8.232 0 0 1 1.76 2.485c.609-.451 1.4-.663 2.349-.614 1.78.09 3.149 1.713 3.433 4.007 1.498.124 2.485.883 3.01 2.308l-.937.346c-.428-1.157-1.208-1.673-2.531-1.673a.5.5 0 0 1-.5-.47c-.138-2.338-1.406-3.463-2.526-3.52-.948-.05-1.645.22-2.079.792a.506.506 0 0 1-.473.193.503.503 0 0 1-.395-.323 7.378 7.378 0 0 0-1.807-2.814c-1.788-1.73-5.09-2.1-8.031-.895-2.063.845-3.396 3.01-3.396 5.519 0 .273.035.696.066.959a.498.498 0 0 1-.376.544C8.169 16.29 7 17.678 7 19.842c0 .1-.001.2.009.302.141 2.495 1.703 4.093 3.983 4.093Z" fill="#8C4FFF" fill-rule="evenodd"/></svg>
